X:118
T:Lucy Campbell (reel)  
B:CRE1.154 (Luighseach Chaimbeal)
F:file ID: cre.1/118lucy_c
S:Tommy Potts
M:C
L:1/8
Q:180
R:reel
K:D
dB||ADD2 D2dB|ADFD BEE2|AFAd fgfe|dBAF ADD>d|
ADD2 D2dB|(3ABA FA BEE2|ADAd fgfe|dBAF ADD2||
"9"dBAB d2 (3gfe|dBcA BEE2|dBAB dgfe|dBAF ADD2|
dBAB d2 (3gfe|dBcA BEE/D/E|dBAB dgfe|dBAF ADD2||
"17"a2fd d2fg|a2fa bgeg|a3f d2 (3gfe|dBAF ADD2|
a2fd d2fg|a2fa bgeg|a3f g3e|dBAF ADD2||
"25"dff2 dfef|dff2 afef|dffe f3e|dBAF ADD2|
dff2 cff2|Bff/e/f afef|(3agf (3gfe fgfe|dBAF ADD2|]

%%%

